X: 101
T: Wenshun de guniang (?) The flexible yellow-bay horse (M.S 155!)
%%abc-version 2.0
%%abcx-abcm2ps-target-version 5.9.1 (29 Sep 2008)
%%abc-creator hum2abc beta
%%abcx-conversion-date 2013/10/02 07:44:27
%%abc-edited-by Helmut Schaffrath
%%humdrum-veritas 1729532991
%%humdrum-veritas-data 1880542742
%%continueall 1
%%barnumbers 0
L: 1/8
M: 3/4
K: C
E2G4C2 [I:setbarnb 1]| 
E DC4D2 | 
E2D4G2 | 
E, G,/ A,/C4 | 
A, G,2<E,2G,/ A,/ | 
C/ A,/G,2>G,2 z | 
E2G4 | 
[M:4/4]E DC4D2 | 
E2D4G2 | 
[M:3/4]E, G,/ A,/C4 | 
A, G,2<E,2G,/ A,/ | 
C/ A,/G,2>G2 z |]  



